!!!COA:	Josquin des Prez
!!!CDT:	~1450-1521/08/27
!!!COM: Mouton
!!!OTL@@LAT:	Te Deum laudamus
!!!OTL2@@LAT:	Patrem immensae majestatis
!!!OTL3@@LAT:	Te ergo quaesumus
!!!AGN:	Motet
!!!SCT:	NJE 26.16
!!!SCA:	New Josquin Edition 26.16
!!!voices:	4
**kern	**kern	**kern	**kern
*staff4	*staff3	*staff2	*staff1
*Ivox	*Ivox	*Ivox	*Ivox
*I"Bassus	*I"Tenor	*I"Altus	*I"Superius
*I'B	*I'T	*I'A	*I'S
*clefF4	*clefGv2	*clefGv2	*clefG2
*k[]	*k[]	*k[]	*k[]
*>[A,B,C]	*>[A,B,C]	*>[A,B,C]	*>[A,B,C]
*>A	*>A	*>A	*>A
*M2/1	*M2/1	*M2/1	*M2/1
*met(C|)	*met(C|)	*met(C|)	*met(C|)
=1-	=1-	=1-	=1-
1r	2.E/	0r	0e
.	4F/	.	.
[1E	2G/	.	.
.	2A/	.	.
=2	=2	=2	=2
1E]	1B	0e	1g
1AA	[1c	.	[1a
=3	=3	=3	=3
0E	2c\]	1e	1a]
.	4B\	.	.
.	4A/	.	.
.	2B\	1e	1g
.	[2c\	.	.
=4	=4	=4	=4
1.F	4c\]	1c	2.a/
.	4B\	.	.
.	4A/	.	.
.	4G/	.	4b\
.	2A/	2f\	2cc\
2G\	2B\	2d\	[2b\
=5	=5	=5	=5
1A	1c	1f	4b\]
.	.	.	4a/
.	.	.	1a
1E	1B	[1e	.
.	.	.	2g#i/
=6	=6	=6	=6
1r	1A	1e]	1a
1AA	1A	1e	1cc
=7	=7	=7	=7
1.AA	1.A	1.e	1.cc
2AA/	2A/	2e\	2cc\
=8	=8	=8	=8
1.E	1.G	1e	2.b\
.	.	.	4a/
.	.	2e\	2b\
2F\	2A/	2c\	[2a/
=9	=9	=9	=9
2G\	2B\	1e	4a/]
.	.	.	4g/
2C/	2c\	.	1g
1D	1A	[1d	.
.	.	.	2f#i/
=10	=10	=10	=10
1GG	2.G/	1d]	0g
.	4A/	.	.
1r	2B\	1r	.
.	[2c\	.	.
=11	=11	=11	=11
0r	4c\]	0r	1cc
.	4d\	.	.
.	4e\	.	.
.	4c\	.	.
.	1d	.	2a/
.	.	.	2b\
=12	=12	=12	=12
0r	0r	1f	1cc
.	.	2d\	1b
.	.	2e\	.
=13	=13	=13	=13
0r	0r	1f	1a
.	.	1e	2r
.	.	.	2g/
=14	=14	=14	=14
0r	0r	1d	2a/
.	.	.	1b
.	.	1d	.
.	.	.	2a/
=15	=15	=15	=15
0r	2r	2d\	2.dd\
.	1G	1d	.
.	.	.	4cc\
.	.	.	2b\
.	2A/	2c\	[2a/
=16	=16	=16	=16
0r	1B	2d\	4a/]
.	.	.	4g/
.	.	2G/	1g
.	1A	1c	.
.	.	.	2f#i/
=17	=17	=17	=17
1.GG	2.d\	1B	1g
.	4c\	.	.
.	2B\	1r	1r
2AA/	[2A/	.	.
=18	=18	=18	=18
2BB/	4A/]	2r	0r
.	4G/	.	.
2C/	1G	1c	.
1AA	.	.	.
.	2F#i/	2c\	.
=19	=19	=19	=19
1GG	1G	2.B\	2r
.	.	.	1g
.	.	4c\	.
1G	1r	2d\	.
.	.	[2e\	2g/
=20	=20	=20	=20
1A	1r	4e\]	2e/
.	.	4d\	.
.	.	2c\	2f/
2G\	2r	2B\	[1g
2C/	[2c\	[2e\	.
=21	=21	=21	=21
1E	2c\]	2e\]	1g]
.	2c\	2c\	.
2.D\	2A/	1d	1f
.	2B\	.	.
4D\	.	.	.
=22	=22	=22	=22
0C	0c	1G	2.e/
.	.	.	4f/
.	.	1r	2g/
.	.	.	[2a/
=23	=23	=23	=23
1r	1B	1d	2a/]
.	.	.	2g/
1D	1A	2d\	1a
.	.	[2f\	.
=24	=24	=24	=24
2D\	2r	2f\]	0r
1F	1A	4e\	.
.	.	4d\	.
.	.	2.c\	.
4E\	2A/	.	.
4D\	.	4d\	.
=25	=25	=25	=25
2.C/	1c	0e	2r
.	.	.	2g/
4D\	.	.	.
1E	1B	.	2g/
.	.	.	2g/
=26	=26	=26	=26
1A	2r	1c	1e
.	2A/	.	.
[1F	2A/	2d\	2r
.	2A/	2c\	2a/
=27	=27	=27	=27
2F\]	1c	1f	2a/
2F\	.	.	2a/
1G	[1B	2e\	1b
.	.	[2d\	.
=28	=28	=28	=28
1E	2B\]	2d\]	2.g/
.	2c\	2c\	.
.	.	.	4a/
2r	2d\	2.B\	2b\
2C/	2e\	.	2cc\
.	.	8A/L	.
.	.	8G/J	.
=29	=29	=29	=29
2D\	2d\	2F/	2b\
2F\	2.c\	2A/	2.a/
1E	.	2B\	.
.	4B\	.	4g/
.	2G/	2c\	[2g/
=30	=30	=30	=30
1D	1A	1d	2g/]
.	.	.	2f#i/
1r	1G	1B	[1g
=31	=31	=31	=31
1C	1c	1e	0g_
2C/	2c\	2e\	.
2C/	[2c\	2e\	.
=32	=32	=32	=32
1C	2c\]	2.e\	1g]
.	2c\	.	.
.	.	4d\	.
1F	[1A	2c\	1r
.	.	4B\	.
.	.	4A/	.
=33	=33	=33	=33
2F\	2A/]	2c\	1r
2G\	2B\	2.B\	.
1A	1c	.	1e
.	.	4A/	.
.	.	[2A/	.
=34	=34	=34	=34
1E	1B	2A/]	2e/
.	.	2G#i/	1e
1AA	1A	1A	.
.	.	.	2e/
=35	=35	=35	=35
2AA/	1A	1c	1e
1AA	.	.	.
.	2A/	2c\	[1e
2AA/	[2A/	[2c\	.
=36	=36	=36	=36
1AA	2A/]	2c\]	1e]
.	2A/	2c\	.
1E	1G	1B	1e
=37	=37	=37	=37
1D	1A	2r	1f
.	.	2.d\	.
2.G\	1B	.	[1g
.	.	4c\	.
.	.	4B\	.
4F\	.	4A/	.
=38	=38	=38	=38
2E\	2c\	2G/	2g/]
2D\	2d\	2.A/	2f/
2E\	2B\	.	1e
.	.	4G/	.
2C/	2c\	[2G/	.
=39	=39	=39	=39
1D	1A	2G/]	0d
.	.	2F#i/	.
1GG	[1G	2.G/	.
.	.	4A/	.
=40	=40	=40	=40
1.G	1G]	4B\	0r
.	.	4c\	.
.	.	1d	.
.	2r	.	.
4F\	2G/	2e\	.
4E\	.	.	.
=41	=41	=41	=41
1D	2A/	1f	1r
.	2B\	.	.
1C	1c	1e	2.g/
.	.	.	4a/
=42	=42	=42	=42
1r	2B\	0r	2b\
.	2A/	.	2.cc\
2r	1c	.	.
.	.	.	4b\
2C/	.	.	[2a/
=43	=43	=43	=43
2D\	1B	1r	2a/]
2E\	.	.	2g#i/
1F	1A	2.c\	1a
.	.	4d\	.
=44	=44	=44	=44
2E\	0r	2e\	0r
2D\	.	2.f\	.
2F\	.	.	.
.	.	4e\	.
2G\	.	[2d\	.
=45	=45	=45	=45
1E	2r	2d\]	0r
.	2G/	2c#i\	.
1D	2A/	1d	.
.	2B\	.	.
=46	=46	=46	=46
0r	1c	0r	2.g/
.	.	.	4a/
.	2B\	.	2b\
.	2A/	.	[2cc\
=47	=47	=47	=47
0r	1c	0r	4cc\]
.	.	.	4b\
.	.	.	1a
.	1B	.	.
.	.	.	2g#i/
=48	=48	=48	=48
1r	1A	1r	1a
[1F	[1A	[1f	[1cc
=49	=49	=49	=49
2F\]	2A/]	2f\]	2cc\]
2F\	2A/	2f\	2cc\
1F	1A	1f	1cc
=50	=50	=50	=50
1C	1G	1e	1cc
[1G	[1B	1d	2.dd\
.	.	.	4cc\
=51	=51	=51	=51
2G\]	2B\]	2d\	2b\
2F\	2c\	2.f\	2.a/
2D\	2d\	.	.
.	.	4e\	4g/
2G\	4c\	4d\	[2g/
.	4B\	4c\	.
=52	=52	=52	=52
1D	1A	1.d	2g/]
.	.	.	2f#i/
[1GG	[1G	.	1g
.	.	2c\	.
=53	=53	=53	=53
1GG]	1G]	1B	1r
1r	1c	1A	2r
.	.	.	[2cc\
=54	=54	=54	=54
0r	2A/	0r	2cc\]
.	2B\	.	2b\
.	1c	.	2a/
.	.	.	[2g/
=55	=55	=55	=55
2r	2B\	2r	2g/]
2F\	2A/	1f	2a/
2D\	1B	.	2a/
2E\	.	2e\	2g/
=56	=56	=56	=56
1F	1A	2d\	1a
.	.	1c	.
2E\	1r	.	1r
2D\	.	2d\	.
=57	=57	=57	=57
1E	0r	2d\	0r
.	.	2c#i\	.
1D	.	1d	.
=58	=58	=58	=58
1G	0r	2r	0r
.	.	2B\	.
2E\	.	2c\	.
2F\	.	[2d\	.
=59	=59	=59	=59
1G	0r	2d\]	0r
.	.	2B\	.
1C	.	[1e	.
=60	=60	=60	=60
2.G\	1r	2e\]	0r
.	.	2d\	.
4F\	.	.	.
2E\	2r	1e	.
4D\	[2c\	.	.
4C/	.	.	.
=61	=61	=61	=61
1D	2c\]	1f	1r
.	2A/	.	.
2C/	1c	[1e	2r
2AA/	.	.	2a/
=62	=62	=62	=62
1E	1B	0e_	2a/
.	.	.	2g/
1AA	2A/	.	[1cc
.	2A/	.	.
=63	=63	=63	=63
1r	2A/	1e]	2cc\]
.	2G/	.	2b\
1F	[1c	1r	1a
=64	=64	=64	=64
2E\	2c\]	1r	1g
1G	2B\	.	.
.	1A	2r	1r
2F\	.	2d\	.
=65	=65	=65	=65
1E	1G	2d\	0r
.	.	2c\	.
2D\	1r	[1f	.
2D\	.	.	.
=66	=66	=66	=66
2D\	0r	2f\]	0r
2C/	.	2e\	.
[1F	.	2d\	.
.	.	4c\	.
.	.	4B\	.
=67	=67	=67	=67
2F\]	0r	2A/	0r
4E\	.	2.d\	.
4D\	.	.	.
2E\	.	.	.
.	.	4c\	.
2F\	.	[2c\	.
=68	=68	=68	=68
1D	0r	2c\]	1r
.	.	2B\	.
[1C	.	1c	1g
=69	=69	=69	=69
0C_	1c	1e	2g/
.	.	.	2g/
.	2c\	2e\	1g
.	2c\	2e\	.
=70	=70	=70	=70
1C]	1.c	2.g\	2.e/
.	.	4f\	4f/
1r	.	4e\	2g/
.	.	4d\	.
.	2A/	2f\	[2a/
=71	=71	=71	=71
0r	1c	2f\	2a/]
.	.	2.e\	2.g/
.	1B	.	.
.	.	4d\	4f/
.	.	[2d\	2d/
=72	=72	=72	=72
1r	1A	2d\]	1e
.	.	2c#i\	.
[1D	1r	1d	1d
=73	=73	=73	=73
2D\]	1A	0r	0r
2C/	.	.	.
2BB/	2G/	.	.
2AA/	2A/	.	.
=74	=74	=74	=74
2GG/	2B\	0r	0r
1C	1A	.	.
2BB/	[2G/	.	.
=75	=75	=75	=75
1AA	2G/]	0r	0r
.	2F#i/	.	.
1GG	1G	.	.
=76	=76	=76	=76
1.C	1.G	1.e	1.cc
2C/	2G/	2e\	2cc\
=77	=77	=77	=77
1C	1G	1e	1cc
1D	1F	1d	1a
=78	=78	=78	=78
2.C/	1.G	2.e\	1cc
4D\	.	4f\	.
2E\	.	2g\	2b\
2F\	2A/	2f\	[2a/
=79	=79	=79	=79
1G	1B	2.d\	2a/]
.	.	.	2g/
.	.	4e\	.
1F	1c	1f	1a
=80	=80	=80	=80
1F	1c	1f	1a
2F\	2c\	2f\	2a/
[2F\	[2c\	[2f\	[2a/
=81	=81	=81	=81
2F\]	2c\]	2f\]	2a/]
2F\	2c\	2f\	2a/
1A	1c	1e	1a
=82	=82	=82	=82
2.E\	1.B	1e	2.g/
4F\	.	.	4a/
2G\	.	2d\	4b\
.	.	.	4g/
[2F\	2c\	[2f\	[2a/
=83	=83	=83	=83
2F\]	2d\	4f\]	2a/]
.	.	4e\	.
2G\	2B\	1d	2g/
2D\	2A/	.	2f/
2E\	2G/	2c\	[2g/
=84	=84	=84	=84
1D	1A	0dl	2g/]
.	.	.	2f#i/
1GGl	1Gl	.	1gl
!!LO:LB:i:g=z
=85||	=85||	=85||	=85||
*>B	*>B	*>B	*>B
*M2/1	*M2/1	*M2/1	*M2/1
*met(C|)	*met(C|)	*met(C|)	*met(C|)
!!section: Secunda pars: Patrem immensae majestatis
!!!OMD: Secunda pars: Patrem immensae majestatis
0r	0r	1r	1.g
.	.	[1e	.
.	.	.	2a/
=86	=86	=86	=86
0r	0r	2e\]	2b\
.	.	2A/	1cc
.	.	2c\	.
.	.	2d\	4b\
.	.	.	4a/
=87	=87	=87	=87
0r	0r	1e	2cc\
.	.	.	2.b\
.	.	2d\	.
.	.	.	4a/
.	.	2c\	[2a/
=88	=88	=88	=88
0r	0r	1B	2a/]
.	.	.	2g#i/
.	.	1A	[1a
=89	=89	=89	=89
0r	0r	2r	1a]
.	.	2d\	.
.	.	1d	2r
.	.	.	2a/
=90	=90	=90	=90
0r	0r	2c\	1a
.	.	2d\	.
.	.	[1e	2.g/
.	.	.	4a/
=91	=91	=91	=91
0r	0r	2e\]	2b\
.	.	4d\	2cc\
.	.	4c\	.
.	.	2d\	2b\
.	.	2e\	2g/
=92	=92	=92	=92
1r	0r	1f	1a
1C	.	[1e	[1g
=93	=93	=93	=93
2C/	1c	1e]	1g]
2C/	.	.	.
2.C/	2c\	1r	1r
.	2c\	.	.
4D\	.	.	.
=94	=94	=94	=94
2E\	1.c	0r	0r
2F\	.	.	.
2C/	.	.	.
[2F\	2A/	.	.
=95	=95	=95	=95
4F\]	1c	0r	0r
4G\	.	.	.
1A	.	.	.
.	1B	.	.
2G\	.	.	.
=96	=96	=96	=96
2F\	1A	0r	0r
4E\	.	.	.
4D\	.	.	.
2C/	2r	.	.
[2D\	2A/	.	.
=97	=97	=97	=97
2D\]	2A/	0r	0r
2F\	2A/	.	.
2E\	2B\	.	.
2C/	4c\	.	.
.	4B\	.	.
=98	=98	=98	=98
1D	4A/	0r	1r
.	4G/	.	.
.	2.A/	.	.
2C/	.	.	2r
.	4G/	.	.
2BB/	[2G/	.	2g/
=99	=99	=99	=99
1AA	2G/]	1r	1a
.	2F#i/	.	.
1GG	1G	2r	1b
.	.	[2d\	.
=100	=100	=100	=100
0r	0r	2d\]	2a/
.	.	2c\	1a
.	.	2d\	.
.	.	2e\	2g/
=101	=101	=101	=101
0r	0r	2c\	2a/
.	.	2.g\	2b\
.	.	.	1g
.	.	4f\	.
.	.	[2e\	.
=102	=102	=102	=102
0r	1r	2e\]	1f
.	.	2d\	.
.	[1A	1e	[1e
=103	=103	=103	=103
2r	1A]	0c	1e]
1AA	.	.	.
.	1A	.	2r
2AA/	.	.	[2e/
=104	=104	=104	=104
2C/	2G/	1c	2e/]
2C/	2A/	.	2e/
2.GG/	[1B	[1d	[1g
4AA/	.	.	.
=105	=105	=105	=105
4BB/	2B\]	1d]	2g/]
4C/	.	.	.
2D\	2A/	.	2f/
2E\	2G/	2B\	1e
2C/	4F/	2c\	.
.	4E/	.	.
=106	=106	=106	=106
1D	1F	2A/	1d
.	.	2B\	.
1AA	1E	2.c\	[1e
.	.	4d\	.
=107	=107	=107	=107
1r	1G	1B	0e_
2r	2A/	1A	.
2A\	2c\	.	.
=108	=108	=108	=108
1A	1.c	0r	0e_
2A\	.	.	.
2A\	4B\	.	.
.	4A/	.	.
=109	=109	=109	=109
2G\	2B\	0r	1e]
2A\	2c\	.	.
1B	2.d\	.	1r
.	4c\	.	.
=110	=110	=110	=110
2G\	4B\	0r	2r
.	4A/	.	.
2A\	2.c\	.	2a/
1F	.	.	2a/
.	4B\	.	.
.	2A/	.	2a/
=111	=111	=111	=111
1E	1G	2r	1b
.	.	2G/	.
1r	1r	2A/	1cc
.	.	[2c\	.
=112	=112	=112	=112
0r	1r	2c\]	2a/
.	.	2B\	2g/
.	2r	2c\	2a/
.	[2A/	2d\	[2cc\
=113	=113	=113	=113
0r	2A/]	0e	2cc\]
.	2G/	.	1b
.	1A	.	.
.	.	.	[2a/
=114	=114	=114	=114
0r	1B	1r	2a/]
.	.	.	2g#i/
.	1A	1c	1a
=115	=115	=115	=115
0r	1G	2d\	0r
.	.	2e\	.
.	2A/	2c\	.
.	2B\	[2B\	.
=116	=116	=116	=116
0r	1G	2B\]	0r
.	.	1e	.
.	1F	.	.
.	.	2d\	.
=117	=117	=117	=117
1r	1E	1e	1r
1C	1c	1e	1g
=118	=118	=118	=118
2C/	2c\	2e\	2g/
1C	1c	1e	1g
2C/	2c\	2e\	2g/
=119	=119	=119	=119
1C	1c	1e	1g
2.G\	1B	1d	[1g
4F\	.	.	.
=120	=120	=120	=120
2E\	2B\	2e\	2g/]
2D\	2.d\	2.f\	2f/
1E	.	.	1g
.	4c\	4e\	.
.	[2B\	[2e\	.
=121	=121	=121	=121
1F	2B\]	2e\]	1a
.	2A/	2d\	.
1E	1B	1e	1g
=122	=122	=122	=122
2r	2r	2r	2r
2C/	2c\	2e\	2g/
2C/	2c\	2e\	2g/
2C/	2c\	2e\	2g/
=123	=123	=123	=123
1C	1c	1e	1g
1G	1B	2d\	1g
.	.	2e\	.
=124	=124	=124	=124
2F\	2c\	1.f	1.a
2D\	1d	.	.
2F\	.	.	.
2G\	4c\	2e\	2b\
.	4B\	.	.
=125	=125	=125	=125
1A	1c	1e	1a
1D	1d	1r	1f
=126	=126	=126	=126
0G	0B	1.d	1.g
.	.	2e\	2g/
=127	=127	=127	=127
1F	1c	2.f\	1a
.	.	4e\	.
1G	1B	2d\	1g
.	.	4c\	.
.	.	4B\	.
=128	=128	=128	=128
1A	1A	1c	1e
[1E	[1G	[1B	2r
.	.	.	2e/
=129	=129	=129	=129
1E]	1G]	1B]	1g
1r	1r	2r	1a
.	.	2A/	.
=130	=130	=130	=130
0r	0r	1c	2g/
.	.	.	1a
.	.	1d	.
.	.	.	2b\
=131	=131	=131	=131
0r	0r	2c\	2cc\
.	.	1d	2a/
.	.	.	1b
.	.	2e\	.
=132	=132	=132	=132
0r	0r	2f\	1a
.	.	2d\	.
.	.	1e	2r
.	.	.	2g/
=133	=133	=133	=133
0r	0r	1d	2a/
.	.	.	2b\
.	.	2r	2g/
.	.	2c\	[2a/
=134	=134	=134	=134
0r	0r	2d\	2a/]
.	.	2e\	1g
.	.	2c\	.
.	.	[2e\	4f/
.	.	.	4e/
=135	=135	=135	=135
0r	1r	4e\]	1f
.	.	4d\	.
.	.	2.d\	.
.	[1A	.	1e
.	.	4c#i\	.
.	.	4c#i\	.
.	.	4B\	.
=136	=136	=136	=136
0D	1A]	1d	1r
.	[1A	2r	1f
.	.	2d\	.
=137	=137	=137	=137
1F	1A]	1d	1f
[1E	[1B	[1e	[1g
=138	=138	=138	=138
2E\]	2B\]	2e\]	2g/]
2AA/	2A/	2c\	2e/
1AA	1A	[1c	[1e
=139	=139	=139	=139
1.C	1A	1c]	1e]
.	1G	1c	1e
2BB/	.	.	.
=140	=140	=140	=140
1AA	1A	1c	1f
1GG	1B	1d	[1g
=141	=141	=141	=141
0C	2G/	1.c	2g/]
.	2.A/	.	2f/
.	.	.	[1e
.	4G/	.	.
.	[2G/	2B\	.
=142	=142	=142	=142
0D	2G/]	[0Al	2e/]
.	4F/	.	4d/
.	4E/	.	4c/
.	2.F/	.	1d
.	4G/	.	.
=143	=143	=143	=143
[0AAl	1.A	0A_	[0el
.	2E/	.	.
=144	=144	=144	=144
0AA]	0El	0A]	0e]
!!LO:LB:i:g=z
=145||	=145||	=145||	=145||
*>C	*>C	*>C	*>C
*M2/1	*M2/1	*M2/1	*M2/1
*met(C|)	*met(C|)	*met(C|)	*met(C|)
!!section: Tertia pars: Te ergo quaesumus
!!!OMD: Tertia pars: Te ergo quaesumus
0A	0c	0e	0a
=146	=146	=146	=146
1A	1c	1e	1a
1D	1d	1f	1a
=147	=147	=147	=147
1.F	1.c	1.f	1.a
2F\	2c\	2f\	2a/
=148	=148	=148	=148
1F	1c	1f	1a
1A	1c	1e	1a
=149	=149	=149	=149
2A\	2c\	2e\	2a/
2A\	2c\	2e\	2a/
1A	1c	1e	1a
=150	=150	=150	=150
1.E	1B	1e	2.g/
.	.	.	4a/
.	1e	2r	2b\
2C/	.	[2g\	2cc\
=151	=151	=151	=151
1D	2.d\	2g\]	2b\
.	.	2f\	1a
.	4c\	.	.
1E	1B	1e	.
.	.	.	2g#i/
=152	=152	=152	=152
1r	1A	1c	1a
1D	1d	1f	1a
=153	=153	=153	=153
2D\	2d\	2f\	2a/
2D\	2d\	2f\	2a/
1E	1B	1e	1g
=154	=154	=154	=154
1F	1A	1c	1a
[1G	[1d	[1g	[1b
=155	=155	=155	=155
2G\]	2d\]	2g\]	2b\]
2A\	2c\	2e\	2a/
1A	1c	1e	[1a
=156	=156	=156	=156
1D	2.d\	2.f\	1a]
.	4c\	4e\	.
1G	4B\	4d\	2r
.	4A/	4c\	.
.	2B\	[2d\	2g/
=157	=157	=157	=157
2F\	2A/	2d\]	2a/
1G	2G/	4c\	2b\
.	.	4B\	.
.	2B\	2d\	2g/
2C/	2c\	2e\	4f/
.	.	.	4e/
=158	=158	=158	=158
1D	1A	1d	1f
[1E	1G	[1B	[1e
=159	=159	=159	=159
0E_	0r	0B_	0e_
=160	=160	=160	=160
1E]	1G	1B]	1e]
1F	2.A/	1r	1r
.	4B\	.	.
=161	=161	=161	=161
2F\	2c\	0r	0r
2D\	2.d\	.	.
2E\	.	.	.
.	4c\	.	.
2F\	[2c\	.	.
=162	=162	=162	=162
1D	2c\]	1r	1r
.	2B\	.	.
1C	1c	2r	2r
.	.	2c\	2c/
=163	=163	=163	=163
0r	0r	2c\	2e/
.	.	2d\	2f/
.	.	1e	1g
=164	=164	=164	=164
2r	2r	1e	1g
2C/	2G/	.	.
2E\	2G/	2r	1r
2F\	2A/	2d\	.
=165	=165	=165	=165
1G	1B	2.d\	2r
.	.	.	2g/
.	.	4d\	.
1G	1B	2d\	2.g/
.	.	[2e\	.
.	.	.	4g/
=166	=166	=166	=166
0r	0r	2e\]	2g/
.	.	2c\	1a
.	.	1d	.
.	.	.	2f/
=167	=167	=167	=167
0r	1G	0B	1g
.	2A/	.	1e
.	[2c\	.	.
=168	=168	=168	=168
1C	2c\]	0r	0r
.	2c\	.	.
2D\	2B\	.	.
[2F\	2A/	.	.
=169	=169	=169	=169
2F\]	2.c\	0r	0r
2F\	.	.	.
.	4B\	.	.
2E\	2G/	.	.
2D\	2B\	.	.
=170	=170	=170	=170
2.F\	1A	1r	0r
4E\	.	.	.
2C/	1G	2r	.
2E\	.	2G/	.
=171	=171	=171	=171
1D	0r	2A/	1r
.	.	2B\	.
1C	.	1c	2r
.	.	.	2e/
=172	=172	=172	=172
0r	0r	2r	2f/
.	.	2B\	2g/
.	.	2c\	1a
.	.	2d\	.
=173	=173	=173	=173
0r	0r	1e	2g/
.	.	.	2e/
.	.	2d\	2.f/
.	.	2B\	.
.	.	.	4g/
=174	=174	=174	=174
1AA	2r	1c	0e
.	2c\	.	.
2AA/	2c\	2A/	.
2AA/	2A/	[2c\	.
=175	=175	=175	=175
1AA	1c	4c\]	0r
.	.	4B\	.
.	.	2A/	.
2.E\	2.B\	1G	.
4F\	4A/	.	.
=176	=176	=176	=176
2G\	2B\	0r	1r
2.A\	1c	.	.
.	.	.	2r
4G\	.	.	.
[2G\	2B\	.	2g/
=177	=177	=177	=177
2G\]	1A	1r	2a/
2F\	.	.	1cc
1G	1G	1d	.
.	.	.	2b\
=178	=178	=178	=178
1C	2r	2.e\	2.cc\
.	2G/	.	.
.	.	4d\	4b\
1F	2A/	2c\	4a/
.	.	.	4g/
.	[2c\	2A/	[2a/
=179	=179	=179	=179
2F\	2c\]	2c\	2a/]
2F\	2A/	2d\	4g/
.	.	.	4f/
1E	2.B\	1e	1g
.	4c\	.	.
=180	=180	=180	=180
1D	1d	1A	1f
[1D	1A	1d	1f
=181	=181	=181	=181
2D\]	2A/	2d\	2f/
2C/	1c	2e\	2g/
2F\	.	1c	2a/
2E\	2G/	.	[2g/
=182	=182	=182	=182
1D	1A	1d	2g/]
.	.	.	2f#i/
[1GG	[1G	1B	1g
=183	=183	=183	=183
1GG]	1G]	1r	2.d/
.	.	.	4e/
1r	1r	2r	4f/
.	.	.	4g/
.	.	2d\	[2a/
=184	=184	=184	=184
0r	2r	2d\	2a/]
.	2D/	2d\	4g/
.	.	.	4f/
.	1A	2.c\	2.e/
.	.	4d\	4f/
=185	=185	=185	=185
0r	2G/	2e\	2g/
.	2F/	2.f\	2a/
.	1B-i	.	1d
.	.	4e\	.
.	.	[2d\	.
=186	=186	=186	=186
0r	1A	2d\]	1e
.	.	2c#i\	.
.	1r	1d	2d/
.	.	.	2d/
=187	=187	=187	=187
0r	2r	0r	2.f/
.	2d\	.	.
.	.	.	4g/
.	2c\	.	2a/
.	2d\	.	2b\
=188	=188	=188	=188
0r	2.e\	0r	2cc\
.	.	.	2.b\
.	4d\	.	.
.	2c\	.	.
.	.	.	4a/
.	2d\	.	[2a/
=189	=189	=189	=189
0r	1B	1d	2a/]
.	.	.	2g#i/
.	[1A	2c\	1a
.	.	[2f\	.
=190	=190	=190	=190
1D	1A]	4f\]	1r
.	.	4e\	.
.	.	4d\	.
.	.	4c\	.
2D\	1r	2d\	1a
[2F\	.	[2c\	.
=191	=191	=191	=191
4F\]	1A	2c\]	1a
4E\	.	.	.
4D\	.	1f	.
4C/	.	.	.
2D\	2A/	.	[1a
2C/	[2c\	2e\	.
=192	=192	=192	=192
1.F	4c\]	0f	2a/]
.	4B\	.	.
.	4A/	.	2a/
.	4G/	.	.
.	2A/	.	[1a
2D\	2F/	.	.
=193	=193	=193	=193
2.F\	1.c	1f	2a/]
.	.	.	2a/
4G\	.	.	.
1A	.	[1e	1a
.	2A/	.	.
=194	=194	=194	=194
1r	2.c\	2e\]	1g
.	.	2d\	.
.	4d\	.	.
2r	1e	2c\	2g/
[2AA/	.	4B\	[2cc\
.	.	4A/	.
=195	=195	=195	=195
4AA/]	2r	1c	4cc\]
4BB/	.	.	4b\
2C/	2E/	.	1a
2D\	2F/	1B	.
2E\	2G/	.	2g#i/
=196	=196	=196	=196
1AA	1E	1A	1a
2r	2r	2r	2r
[2AA/	[2A/	[2e\	[2cc\
=197	=197	=197	=197
2AA/]	2A/]	2e\]	2cc\]
2AA/	2A/	2e\	2cc\
2E\	2G/	2e\	2.b\
2F\	2A/	2d\	.
.	.	.	4a/
=198	=198	=198	=198
1E	1B	1e	1g
2E\	2G/	1r	1r
[2F\	[2A/	.	.
=199	=199	=199	=199
4F\]	4A/]	1r	1r
4E\	4G/	.	.
4D\	4F/	.	.
4C/	4E/	.	.
1D	1F	2r	2r
.	.	2A/	2a/
=200	=200	=200	=200
0r	1E	2c\	2a/
.	.	2B\	2g/
.	1r	2c\	2.a/
.	.	2d\	.
.	.	.	4b\
=201	=201	=201	=201
1A	2r	1e	1cc
.	2A/	.	.
2A\	2c\	[1e	2a/
2G\	2B\	.	[2b\
=202	=202	=202	=202
2A\	2c\	2e\]	4b\]
.	.	.	4a/
2F\	2d\	2A/	1a
1E	1e	1B	.
.	.	.	2g/
=203	=203	=203	=203
2F\	2d\	1A	1a
1A	2c\	.	.
.	1B	1r	1r
2G#i\	.	.	.
=204	=204	=204	=204
0A	1c	1c	0r
.	1r	2c\	.
.	.	2c\	.
=205	=205	=205	=205
0r	0r	1d	1a
.	.	2c\	2a/
.	.	[2d\	2a/
=206	=206	=206	=206
0r	0r	4d\]	1a
.	.	4e\	.
.	.	2f\	.
.	.	2e\	2g/
.	.	[2d\	[2a/
=207	=207	=207	=207
0r	0r	2d\]	4a/]
.	.	.	4b\
.	.	2c\	2cc\
.	.	1d	2b\
.	.	.	[2a/
=208	=208	=208	=208
1D	1r	1A	4a/]
.	.	.	4g/
.	.	.	4f/
.	.	.	4e/
2D\	1A	1r	1f
[2D\	.	.	.
=209	=209	=209	=209
2D\]	2A/	0r	1e
2C/	1A	.	.
2D\	.	.	1r
2E\	2G/	.	.
=210	=210	=210	=210
2C/	2A/	0r	0r
2BB/	2B\	.	.
1AA	2.c\	.	.
.	4B\	.	.
=211	=211	=211	=211
2D\	1A	0r	0r
2C/	.	.	.
2.D\	2r	.	.
.	2A/	.	.
4C/	.	.	.
=212	=212	=212	=212
2BB/	2G/	0r	0r
4AA/	1A	.	.
4BB/	.	.	.
4C/	.	.	.
4D\	.	.	.
[2E\	2G/	.	.
=213	=213	=213	=213
2E\]	1F	0r	0r
2D\	.	.	.
1E	1E	.	.
=214	=214	=214	=214
2r	2r	1f	1a
2D\	2d\	.	.
2D\	2d\	2f\	2a/
2D\	2d\	2f\	2a/
=215	=215	=215	=215
2.A\	2.c\	2.e\	2.a/
4A\	4c\	4e\	4a/
2A\	2c\	2e\	2a/
2A\	2c\	2e\	2a/
=216	=216	=216	=216
2A\	2c\	2e\	2a/
2A\	2c\	2e\	2a/
1E	1B	1e	1g
=217	=217	=217	=217
1A	1c	1e	2.a/
.	.	.	4b\
2A\	2A/	2e\	2cc\
2G\	2B\	[2e\	[2b\
=218	=218	=218	=218
1A	1c	2e\]	4b\]
.	.	.	4a/
.	.	1f	1a
1B-i	1d	.	.
.	.	2d\	2g/
=219	=219	=219	=219
1A	1c	1e	1a
1D	1A	2r	1f
.	.	2d\	.
=220	=220	=220	=220
1.G	1.B	1.d	1.g
2D\	2A/	2d\	2a/
=221	=221	=221	=221
0D	1A	1d	1a
.	2r	1f	2r
.	2A/	.	2a/
=222	=222	=222	=222
0r	2G/	2e\	2b\
.	2A/	2e\	2cc\
.	2.B\	[1d	2.dd\
.	4A/	.	4cc\
=223	=223	=223	=223
0r	2G/	2d\]	4b\
.	.	.	4a/
.	4F/	2G/	1b
.	4E/	.	.
.	1F	2c\	.
.	.	2d\	[2a/
=224	=224	=224	=224
0r	1E	1B	2a/]
.	.	.	2g#i/
.	1r	1A	1a
=225	=225	=225	=225
0D	0A	0d	0f
=226	=226	=226	=226
1D	1A	1d	1f
[1F	[1A	[1c	[1f
=227	=227	=227	=227
2F\]	2A/]	2c\]	2f/]
2F\	2A/	2c\	2f/
1F	1A	1c	1f
=228	=228	=228	=228
1C	1.G	1c	1.e
[1D	.	[1A	.
.	4F/	.	4d/
.	4E/	.	4c/
=229	=229	=229	=229
1D]	1F	2A/]	1d
.	.	2B\	.
[1C	[1G	[1c	[1e
=230	=230	=230	=230
1C]	1G]	1c]	0e_
[1C	1r	[1G	.
=231	=231	=231	=231
2C/]	0E	1G]	1e]
2BB/	.	.	.
1AA	.	1A	1c
=232	=232	=232	=232
1GG	1G	1B	1d
[1FF	[1A	[1c	[1f
=233	=233	=233	=233
1FF]	1A]	1c]	1f]
[1GG	[1G	1B	[1d
=234	=234	=234	=234
1GG]	2G/]	1.d	2d/]
.	4F/	.	2e/
.	4E/	.	.
1r	1D	.	2f/
.	.	4c\	2g/
.	.	4B\	.
=235	=235	=235	=235
1.FF	1.F	2.A/	1.a
.	.	4B\	.
.	.	[1c	.
2GG/	4E/	.	4g/
.	4D/	.	4f/
=236	=236	=236	=236
2AA/	2C/	2c\]	2e/
2FF/	2D/	4B\	2.f/
.	.	4A/	.
1C	1E	2G/	.
.	.	.	4e/
.	.	[2A/	[2e/
=237	=237	=237	=237
1D	1F	2A/]	2e/]
.	.	2B\	2d/
1AA	[1E	2c\	[1el
.	.	4B\	.
.	.	4A/	.
=238	=238	=238	=238
1.C	1E]	2G/	0e_
.	.	2A/	.
.	[1G	1E	.
2D\	.	.	.
=239	=239	=239	=239
2E\	2G/]	2r	0e_
2C/	2A/	1c	.
1G	2B\	.	.
.	2G/	2B\	.
=240	=240	=240	=240
1A	1c	1A	0e]
1El	1Bl	1Gl	.
==	==	==	==
*-	*-	*-	*-
!!!RDF**kern: l=long note in original notation
!!!RDF**kern: i=editorial accidental
!!!ENC:	Joel Chapman 2012/1/23
!!!END:	2012/01/23/
!!!EED:	Jesse Rodin
!!!EEV:	2012/02/02/
!!attribution-level@Jos: 4 (questionable)
!!!ONB:	Translated from MusicXML and edited on 2012/02/02/ by Craig Sapp
!!muse2ps: u^(2) @{OTL2} (3) @{OTL3}^C^@{COA}?\n@{SCT}^i2I150v95,95,95,150c120Q16
